icons/logo-vimeo.svg

<svg width="24" height="24" viewBox="0 0 24 24" fill="none" xmlns="http://www.w3.org/2000/svg">
<path d="M3 8.49434L3.99549 9.49309C3.99549 9.49309 5.48872 8.39247 5.98646 8.99372C6.49317 9.60195 7.84106 16.6341 8.47519 17.9824C9.02868 19.1649 10.4443 20.8688 12.4571 19.4805C14.4481 17.9824 19.9233 13.9874 20.9188 7.99497C21.3608 5.33732 19.9233 4 18.4301 4C16.4391 4 14.4013 5.20049 13.9504 7.99497C15.9911 6.74255 16.4899 8.99671 15.4436 10.9912C14.3963 12.9937 13.4526 13.9874 12.9549 13.9874C12.4671 13.9874 12.0351 12.8239 11.4617 10.4918C10.8743 8.07487 10.9639 4 8.47519 4C5.98646 4 3 8.49434 3 8.49434Z" stroke="#1E293B" stroke-width="2" stroke-linecap="round" stroke-linejoin="round"/>
</svg>

<svg
  width="24"
  height="24"
  viewBox="0 0 24 24"
  xmlns="http://www.w3.org/2000/svg"
  fill="none"
  stroke="currentColor"
  stroke-width="2"
  stroke-linecap="round"
  stroke-linejoin="round"
>
  <path d="M3 8.494l.995 1s1.494-1.102 1.991-.5c.507.608 1.855 7.64 2.49 8.988.553 1.183 1.968 2.887 3.981 1.498 1.991-1.498 7.466-5.493 8.462-11.485C21.36 5.337 19.923 4 18.43 4c-1.99 0-4.029 1.2-4.48 3.995 2.041-1.252 2.54 1.002 1.494 2.996-1.048 2.003-1.991 2.996-2.49 2.996-.487 0-.919-1.163-1.492-3.495C10.874 8.075 10.964 4 8.475 4S3 8.494 3 8.494z" />
</svg>
